!!!SOCIAL_FUNCTION:	miscellaneous songs
!!!PDT:	1918

Specific Region: Dakotas, Minnesota, Montana, Nebraska
!!!REG: Dakotas and Montana
!!!LING_GROUP: Siouan
!!!LANG: Tone
!!!OTL@ENG: Song Concerning Fierce Face
!!!ONM: No. 238
**kern
*Imale
*clefF4
*k[f#c#g#]
*M3/4
*MM76
16F#
8.F#
8f#
8f#
8f#
16.e
32f#
=2
8.f#
16c#
4c#
!!!RNB: Rhythm of last beat of bar 2 in source has rhythm: 16-16.-32
8c#
16.B
32c#
=3
8c#
8c#
4A
8A
16F#
16F#
=4
16.B
32c#
8B
4B
8B
8A
=5
16B
8.A
16A
16F#
8F#
8F#
8F#
=6||
*M2/4
2F#
=7
2F#
=8||
*M3/4
16F#
8.F#
8c#
8c#
8c#
8B
=9
16c#
8.c#
(16c#
16A)
8A
(8A
16.F#)
32F#
=10
8B
8B
4B
8B
8A
=11
16B
8.A
(16A
16F#)
8F#
8F#
8F#
=12
2F#
4F#
==
*-
!!!CNT: Native American -- Sioux
!!!MRD: 1911/07//-1914///
!!!OCL: Frances Densmore
!!!YOR1: Teton Sioux Music, Bulletin 61,
!!!YOR2: Bureau of American Ethnology, Smithsonian Institution
!!!PPR: Government Printing Office
!!!PPP: Washington, D.C.
!!!PDT: 1918///
!!!ENC: Craig Stuart Sapp
!!!END: 2002/03/25/
!!!EEV: 2002/03/31/
!!!AGN: Sisseton Song
!!!MPN@@SIO: Malipi'ya-to
!!!MPN@ENG: Blue Cloud
!!!TXO: Santee Sioux
!!!MLC: Sisseton, South Dakota, United States of America
!!!ARL: 45.6/-97.1:
!!!catalog: Catalogue No. 662
!!!PPG: 516
!!!EFL: 243/245
!!!VTS: 2118553786
